img/faqs/reviews-icon.svg

<svg height="79" viewBox="0 0 83 79" width="83" xmlns="http://www.w3.org/2000/svg"><path d="m870.5 1369-9.795585 30.17317-31.704415-.00661 25.649443 18.65697-9.796685 30.17537 25.649443-18.64706 25.64174 18.64816-9.792284-30.17096 25.648343-18.64926-31.704415-.00441zm0 17.82109 5.798555 17.85963 18.770193.00441-15.184752 11.04044 5.796354 17.85743-15.178149-11.03603-15.183652 11.03823 5.798555-17.86514-15.184752-11.04374 18.769093.0022z" fill="#ff5722" fill-rule="evenodd" transform="translate(-829 -1369)"/></svg>

<?xml version="1.0" encoding="UTF-8"?>
<svg width="83px" height="79px" viewBox="0 0 83 79" version="1.1" xmlns="http://www.w3.org/2000/svg" xmlns:xlink="http://www.w3.org/1999/xlink">
    <!-- Generator: Sketch 51.3 (57544) - http://www.bohemiancoding.com/sketch -->
    <title>reviews-icon</title>
    <desc>Created with Sketch.</desc>
    <defs></defs>
    <g id="FAQs-&amp;-Account" stroke="none" stroke-width="1" fill="none" fill-rule="evenodd">
        <g id="TT-FAQs" transform="translate(-829.000000, -1369.000000)" fill="#FF5722">
            <path d="M870.5,1369 L860.704415,1399.17317 L829,1399.16656 L854.649443,1417.82353 L844.852758,1447.9989 L870.502201,1429.35184 L896.143941,1448 L886.351657,1417.82904 L912,1399.17978 L880.295585,1399.17537 L870.5,1369 Z M870.5,1386.82109 L876.298555,1404.68072 L895.068748,1404.68513 L879.883996,1415.72557 L885.68035,1433.583 L870.502201,1422.54697 L855.318549,1433.5852 L861.117104,1415.72006 L845.932352,1404.67632 L864.701445,1404.67852 L870.5,1386.82109 Z" id="reviews-icon"></path>
        </g>
    </g>
</svg>
